polaris-icons/icons/new-icons/TransferOutMajor.svg

<svg width="20" height="20" viewBox="0 0 20 20" fill="none" xmlns="http://www.w3.org/2000/svg">
<path d="M16.5 4.25C16.5 3.83579 16.1642 3.5 15.75 3.5C15.3358 3.5 15 3.83579 15 4.25V15.75C15 16.1642 15.3358 16.5 15.75 16.5C16.1642 16.5 16.5 16.1642 16.5 15.75V4.25Z" fill="#4A4A4A"/>
<path d="M13 10.75C13.4142 10.75 13.75 10.4142 13.75 10C13.75 9.58579 13.4142 9.25 13 9.25H6.06066L7.78033 7.53033C8.07322 7.23744 8.07322 6.76256 7.78033 6.46967C7.48744 6.17678 7.01256 6.17678 6.71967 6.46967L3.71967 9.46967C3.42678 9.76256 3.42678 10.2374 3.71967 10.5303L6.71967 13.5303C7.01256 13.8232 7.48744 13.8232 7.78033 13.5303C8.07322 13.2374 8.07322 12.7626 7.78033 12.4697L6.06066 10.75L13 10.75Z" fill="#4A4A4A"/>
</svg>

<svg viewBox="0 0 20 20" xmlns="http://www.w3.org/2000/svg"><path d="M16.5 4.25a.75.75 0 0 0-1.5 0v11.5a.75.75 0 0 0 1.5 0v-11.5Z" fill="#5C5F62"/><path d="M13 10.75a.75.75 0 0 0 0-1.5h-6.94l1.72-1.72a.75.75 0 0 0-1.06-1.06l-3 3a.75.75 0 0 0 0 1.06l3 3a.75.75 0 0 0 1.06-1.06l-1.72-1.72h6.94Z" fill="#5C5F62"/></svg>
